assets/images/item_1965.svg

<?xml version="1.0" standalone="no"?><!DOCTYPE svg PUBLIC "-//W3C//DTD SVG 1.1//EN" "http://www.w3.org/Graphics/SVG/1.1/DTD/svg11.dtd"><svg xmlns="http://www.w3.org/2000/svg" version="1.1" width="74px" height="160.2px" viewBox="0 -12 74 160.2" style="top:-12px"><desc>8</desc><defs/><g id="Polygon12341"><path d="m2.6 69.2c0-7.5 5.2-14.7 16.6-16.6c-8.9-4.5-13.9-10-13.9-17.9c0-11.7 11.2-17.4 22.5-17.4c10.3 0 20.7 4.8 20.7 15.3c0 7.5-5.6 13.8-15.3 15l2.5 1.3c10.5 5.2 16.6 10.6 16.6 19c0 10.9-10 18-24.8 18c-13.5 0-24.9-5.6-24.9-16.7zm33-36.7c0-5.5-2.9-10.6-8-10.6c-5.4 0-8.1 5.5-8.1 10.6c0 4.7 2.4 9.3 8 12.2l1.5.8c4.2-2.8 6.6-8.1 6.6-13zm2.7 37.9c0-5.2-2.6-11-14.1-15.8C19.2 58 17 64 17 69c0 6.6 4.2 12.2 10.9 12.2c6.1 0 10.4-3.6 10.4-10.8z" stroke="none" fill="#000"/></g></svg>

<?xml version="1.0" standalone="no"?><!DOCTYPE svg PUBLIC "-//W3C//DTD SVG 1.1//EN" "http://www.w3.org/Graphics/SVG/1.1/DTD/svg11.dtd"><svg xmlns="http://www.w3.org/2000/svg" version="1.1" width="74px" height="160.2px" viewBox="0 -12 74 160.2" style="top:-12px">  <desc>8</desc>  <defs/>  <g id="Polygon12341">    <path d="M 2.6 69.2 C 2.6 61.7 7.8 54.5 19.2 52.6 C 10.3 48.1 5.3 42.6 5.3 34.7 C 5.3 23 16.5 17.3 27.8 17.3 C 38.1 17.3 48.5 22.1 48.5 32.6 C 48.5 40.1 42.9 46.4 33.2 47.6 C 33.2 47.6 35.7 48.9 35.7 48.9 C 46.2 54.1 52.3 59.5 52.3 67.9 C 52.3 78.8 42.3 85.9 27.5 85.9 C 14 85.9 2.6 80.3 2.6 69.2 Z M 35.6 32.5 C 35.6 27 32.7 21.9 27.6 21.9 C 22.2 21.9 19.5 27.4 19.5 32.5 C 19.5 37.2 21.9 41.8 27.5 44.7 C 27.5 44.7 29 45.5 29 45.5 C 33.2 42.7 35.6 37.4 35.6 32.5 Z M 38.3 70.4 C 38.3 65.2 35.7 59.4 24.2 54.6 C 19.2 58 17 64 17 69 C 17 75.6 21.2 81.2 27.9 81.2 C 34 81.2 38.3 77.6 38.3 70.4 Z " stroke="none" fill="#000"/>  </g></svg>
